X:1
T:Marche au camp
O:Quebec
C:Jean-Paul Loyer
Z:Philippe Murphy 17-02-2006
M:6/8
L:1/8
R:jig
K:G
Bcd BGG | DGA BGA | Bcd BGG | DGF E3 |
EFG DGF | EFG BGG | DGA BAB | dBG A3 |
Bcd BGG | DGA BGA | Bcd BGG | DGF E3 |
EFG DGF | EFG BGG | DGA BAB | cAF G3 ::
A3 ABc | A3 ABc | B3 BAB | dBA GAB |
A3 ABc | A3 ABc | Bcd gdB | ABA G3 :|
